!!!COM: Robert Schumann
!!!CNT: Deutsch
!!!TXO: Deutsch
!!!OTL: Dein Angesicht
!!!LYR: Heine
!!!OPR: Ausgewa2hlte Lieder
!!!OPS: Op. 127
!!!ONM: No. 2
!!!ENC: Ben Fuhrman
!!!YOR: Schumann Lieder - Max Friedlaender, ed.,
!!!YOR: New York: C. F. Peters, Vol. 1
!!!ODT: 1840/
!!NB: Vocal melody and text only encoded.
!!NB: First instance of melodic material only encoded.
**kern	**silbe
*clefG2	*
*k[b-e-a-d-g-]	*
*M2/4	*
!!created: 5/31/06 9:56
!!proofed and posted: 5/31/06 9:56
!!edit time: 21 minutes
=1	=1
4r	.
8r	.
16r	.
{16a-	{Dein
=2	=2
8.a-	An-
16a-	-ge-
8a-	-sicht,
8a-	so
=3	=3
8b-	lieb
8b-	und
8.ee-}	scho2n,}
{16dd-	{das
=4	=4
8cc	hab'
8b-	ich
8a-	ju2ngst
8g	im
=5	=5
(8f	Traum
16a-)	|
16gn	ge-
8a-}	-seh'n}
16r	.
{16a-	{es
=6	=6
8.a-	ist
16a-	so
8a-	mild
8a-	und
=7	=7
8b-	en-
8b-	-gel-
8.ee-}	-gleich,}
{[16dd-	{und
=8	=8
16dd-]	|
8cc	doch
8b-	so
8a-	bleich,
[16g-	so
=9	=9
16g-]	|
(16f	schmer-
16a-)	|
16gn	-zen-
8f}	-reich.}
{8an	{Und
=10	=10
8.an	nur
16gn	die
8f	Lip-
8an	-pen,
=11	=11
8an	die
8gn	sind
4f}	rot;}
=12	=12
{8an	{bald
16an	a-
16an	-ber
8an	ku2sst
8an	sie
=13	=13
8.an	bleich
16an	der
(16an	Tod.
16cc#	|
16bn)}	|}
{16bn	{Er-
=14	=14
8.bn	lo-
16bn	-schen
8bn	wird
8bn	das
=15	=15
8cc#	Him-
8cc#	-mels-
8cc#	-licht,
8een	das
=16	=16
8.dd#	aus
16cc#	den
16bn	from-
16bn	-men
16an	Aug-
16an	-en
=17	=17
4g#}	bricht.}
8r	.
{8a-	{Dein
=18	=18
8.a-	An-
16a-	-ge-
8a-	-sicht,
8a-	so
=19	=19
8b-	lieb
8b-	und
8ee-	scho2n
8dd-	das
=20	=20
8cc	hab'
8b-	ich
8a-	ju2ngst
8g-	im
=21	=21
(8f	Traum
16a-)	|
16gn	ge-
8a-}	-seh'n,}
16r	.
{16a-	{es
=22	=22
8.a-	ist
16c	so
8.d-	mild
16b-	und
=23	=23
8.b-	en-
16dn	-gel-
8e-	-gleich,
8dd-	und
=24	=24
8dd-	doch
8b--	so
8g-	bleich,
8e-	so
=25	=25
4.a-	schmer-
8c	-zen-
=26	=26
2d-}	-reich.}
==	==
*-	*-
